X: 1
T:Lord Alexander Kennedy  "CYMRU"
M:C|
L:1/8
Q:80
C:J. Honeyman
S:March
K:HP
|: {g}e/4a3/4|
A3/2{GdGe}A/2{GAG}A3/2B/2|
{g}A3/4d/4{g}f/4a3/4{ef}e2|  !
{Gdc}d{g}c/4d3/4|1 {gfg}f{g}e3/4A/4|2 {g}f3/4e/4{g}c/4{d}A3/4|
{gcd}c{g}B{GdGe}B{g}e/4a3/4| |
A3/2{GdGe}A/2{GAG}A3/2B/2|  !
{g}A3/4d/4{g}f/4a3/4{ef}e3/2d/2|
{g}c/4e3/4{g}A3/4{d}c/4{g}B/4d3/4{g}G3/4{d}B/4|
{g}A2{GAG}A:| |:  !
{g}c3/4d/4|
{gef}e2{g}e3/4A/4{g}c/4e3/4|
{g}f2{g}f3/4d/4{g}f/4a3/4|  !
{Gdc}d{g}c3/4d/4|1 {gfg}f{g}e3/4A/4|2 {g}f3/4e/4{g}c/4{d}A3/4|
{gcd}c{g}B{GdGe}B|1 {g}c3/4d/4|1 |
{gef}e2{g}e3/4A/4{g}c/4e3/4|  !
{g}f2{g}f3/4d/4{g}f/4a3/4|
{g}c/4e3/4{g}A3/4{d}c/4{g}B/4d3/4{g}G3/4{d}B/4|
{g}A2{GAG}A:|2  !
a3/4f/4|
{gef}e{gAGAG}A{g}A3/2B/2|
{g}A3/4d/4{g}f/4a3/4{ef}e3/2d/2|  !
{g}c/4e3/4{g}A3/4{d}c/4{g}B/4d3/4{g}G3/4{d}B/4|
{g}A2{GAG}A|] |:
{ag}a|  !
{AGAG}A{g}c/4e3/4{g}A3/4d/4{g}f/4a3/4|
{Gdc}d{g}f/4a3/4{ef}e2|
{Gdc}d{g}c3/4d/4|1 {gfg}f{g}e3/4A/4|2 {g}f3/4e/4{g}c/4{d}A3/4|  !
{gcd}c{g}B{GdGe}B|1 {ag}a|1 |
{AGAG}A{g}c/4e3/4{g}A3/4d/4{g}f/4a3/4|
{Gdc}d{g}f/4a3/4{ef}e3/2d/2|  !
{g}c/4e3/4{g}A3/4{d}c/4{g}B/4d3/4{g}G3/4{d}B/4|
{g}A2{GAG}A:|2
a3/4f/4|  !
{gef}e{gAGAG}A{g}A3/2B/2|
{g}A3/4d/4{g}f/4a3/4{ef}e3/2d/2|
{g}c/4e3/4{g}A3/4{d}c/4{g}B/4d3/4{g}G3/4{d}B/4|  !
{g}A2{GAG}A|] |:
{g}c3/4d/4|
{gef}e{g}c/4e3/4{gef}e3/4A/4{g}c/4{d}A3/4|  !
{gfg}f{g}d3/4f/4{gef}e{g}c/4{d}A3/4|
{Gdc}d{g}f/4a3/4e3/4A/4{g}c/4{d}A3/4|
{gcd}c{g}B{GdGe}B{g}c3/4d/4| |  !
{gef}e{g}c/4e3/4{gef}e3/4A/4{g}c/4{d}A3/4|
{gfg}f{g}d3/4f/4{gef}e{g}c/4{d}A3/4|
{g}c/4e3/4{g}A3/4{d}c/4{g}B/4d3/4{g}G3/4{d}B/4|  !
{g}A2{GAG}A:| |:
{g}f/4a3/4|
A3/4d/4{g}f/4a3/4A3/4d/4{g}f/4a3/4|  !
{Gdc}d{g}f/4a3/4{Gdc}d3/4a/4g/4a3/4|
{cd}c{g}e/4a3/4{cd}c{g}e/4a3/4|
G3/4{g}B/4d3/4f/4{ag}a2| |  !
A3/4d/4{g}f/4a3/4A3/4d/4{g}f/4a3/4|
{Gdc}d{g}f/4a3/4{Gdc}d3/4a/4g/4a3/4|
{g}c/4e3/4{g}A3/4{d}c/4{g}B/4d3/4{g}G3/4{d}B/4|  !
{g}A2{GAG}A:| |:
{g}c3/4d/4|
{gef}e3/4{g}A/4{d}c/4a3/4e3/4{g}A/4{d}c/4a3/4|  !
f3/4B/4d/4a3/4f3/4{g}B/4d/4a3/4|
{gef}e3/4{g}A/4{d}c/4a3/4e3/4{g}A/4{d}c/4g3/4|1
B/4{d}G3/4{d}B/4g3/4B/4{d}G3/4{d}B/4a3/4|1 |  !
{gef}e3/4{g}A/4{d}c/4a3/4e3/4{g}A/4{d}c/4a3/4|
f3/4B/4d/4a3/4f3/4{g}B/4d/4a3/4|
{g}c/4e3/4{g}A3/4{d}c/4{g}B/4d3/4{g}G3/4{d}B/4|  !
{g}A2{GAG}A:|2 |
B/4{d}G3/4{g}B/4d3/4{g}e3/4g/4{a}f/4a3/4|
{ef}e{g}A{GAG}A3/2B/2|  !
{g}A3/4d/4{g}f/4a3/4{ef}e3/2d/2|
{g}c/4e3/4{g}A3/4{d}c/4{g}B/4d3/4{g}G3/4{d}B/4|
{g}A2{GAG}A|]  !
